X:564
T: HEEDELBEERN WER WILL MIR DAS DING VERWEHREN
N: E1860
O: Europa, Mitteleuropa, Deutschland, Sachsen
R: Kinder - Lied
M: 2/4
L: 1/16
K: F
 | c3BA4 | c3BA4 |
G2A2B2G2 | A2B2c2A2 |
G2A2B2G2 | A2B2c2A2 |
c3BA4 | c3BA4

@@@ Tune index: 5248
